Origami/32x32/apps/bareftp.svg

<svg width="32" height="32" version="1.1" viewBox="0 0 32 32" xmlns="http://www.w3.org/2000/svg">
 <path d="m10.786322 3.0044217c-1.1713707 0.0482135-2.3520226 0.4941645-3.2080476 1.6444679v0.00195l-3.9113429 5.2615191c-3.702e-4 4.965e-4 3.699e-4 0.00146 0 0.00195l-0.00196 0.00195c-0.9287752 1.2498073-0.8428305 3.3018293-0.00197 4.4334293 0.5888866 0.7925 1.4120538 1.186371 2.2788337 1.410102v5.574004c0 2.532759 2.1455953 4.665836 4.6932198 4.665836h0.671862c1.134793 0 2.155068-0.468812 2.976236-1.162064l3.353421 4.511544v2e-3c0.856949 1.151545 2.03936 1.597062 3.211976 1.644468 1.300685 0.05336 2.62321-0.369211 3.573448-1.646421l3.911343-5.261516v-2e-3c0.930294-1.249618 0.845223-3.303195 0.0039-4.435377-0.588881-0.792499-1.412048-1.18637-2.278828-1.410101v-5.574003c0-2.53276-2.145595-4.6658371-4.693219-4.6658371h-0.671862c-1.134794 0-2.155069 0.4688119-2.976236 1.1620646l-3.353397-4.5115449c-0.950239-1.27721-2.272763-1.6997791-3.573448-1.6464209z" style="opacity:.2"/>
 <path d="m10.786322 2.004422c-1.1713707 0.0482135-2.3520226 0.4941645-3.2080476 1.6444679v0.00195l-3.9113429 5.2615191c-3.702e-4 4.965e-4 3.699e-4 0.00146 0 0.00195l-0.00196 0.00195c-0.9287752 1.249807-0.8428305 3.301829-0.00197 4.433429 0.5888866 0.7925 1.4120538 1.186371 2.2788337 1.410102v5.574004c0 2.532759 2.1455953 4.665836 4.6932198 4.665836h0.671862c1.134793 0 2.155068-0.468812 2.976236-1.162064l3.353421 4.511544v2e-3c0.856949 1.151545 2.03936 1.597062 3.211976 1.644468 1.300685 0.05336 2.62321-0.369211 3.573448-1.646421l3.911343-5.261516v-2e-3c0.930294-1.249618 0.845223-3.303195 0.0039-4.435377-0.588881-0.792499-1.412048-1.18637-2.278828-1.410101v-5.574003c0-2.53276-2.145595-4.6658368-4.693219-4.6658368h-0.671862c-1.134794 0-2.155069 0.4688119-2.976236 1.1620646l-3.353397-4.5115449c-0.950239-1.27721-2.272763-1.6997791-3.573448-1.6464209z" style="fill:#4f4f4f"/>
 <path d="m10.941406 6.0026575a1.1088545 0.86650889 0 0 0 -0.902344 0.4316407l-3.8906245 5.2656248a1.1088545 0.86650889 0 0 0 0.9609375 1.300781h1.890625v8.333984c0 0.92305 0.742966 1.666016 1.666016 1.666016h0.667968c0.92305 0 1.666016-0.742966 1.666016-1.666016v-8.333984h1.890625a1.1088545 0.86650889 0 0 0 0.960937 -1.300781l-3.890624-5.2656248a1.1088545 0.86650889 0 0 0 -1.019532 -0.4316407z" style="opacity:.2"/>
 <path d="m10.941406 5.0019531a1.1088545 0.86650889 0 0 0 -0.902344 0.4316407l-3.8906245 5.2656252a1.1088545 0.86650889 0 0 0 0.9609375 1.300781h1.890625v8.333984c0 0.92305 0.742966 1.666016 1.666016 1.666016h0.667968c0.92305 0 1.666016-0.742966 1.666016-1.666016v-8.333984h1.890625a1.1088545 0.86650889 0 0 0 0.960937 -1.300781l-3.890624-5.2656252a1.1088545 0.86650889 0 0 0 -1.019532 -0.4316407z" style="fill:#ffd42b"/>
 <path d="m20.666016 11.000704c-0.92305 0-1.666016 0.742966-1.666016 1.666016v8.333984h-1.890625a1.1088545 0.86650889 0 0 0 -0.960937 1.300781l3.890624 5.265625a1.1088545 0.86650889 0 0 0 0.902344 0.431641 1.1088545 0.86650889 0 0 0 1.019532 -0.431641l3.890624-5.265625a1.1088545 0.86650889 0 0 0 -0.960937 -1.300781h-1.890625v-8.333984c0-0.92305-0.742966-1.666016-1.666016-1.666016h-0.667968z" style="opacity:.2"/>
 <path d="m20.666016 10c-0.92305 0-1.666016 0.742966-1.666016 1.666016v8.333984h-1.890625a1.1088545 0.86650889 0 0 0 -0.960937 1.300781l3.890624 5.265625a1.1088545 0.86650889 0 0 0 0.902344 0.431641 1.1088545 0.86650889 0 0 0 1.019532 -0.431641l3.890624-5.265625a1.1088545 0.86650889 0 0 0 -0.960937 -1.300781h-1.890625v-8.333984c0-0.92305-0.742966-1.666016-1.666016-1.666016h-0.667968z" style="fill:#71d716"/>
 <path d="m10.787109 2.0039062c-1.1713703 0.0482136-2.352959 0.4942279-3.208984 1.6445313v0.0019531l-3.9121094 5.2617188v0.0019531l-0.0019531 0.0019531c-0.5446666 0.732931-0.7317331 1.7404494-0.6308594 2.6777344 0.0742245-0.611789 0.2780825-1.20302 0.6308594-1.6777344l0.0019531-0.0019531v-0.0019531l3.9121094-5.2617188v-0.0019531c0.856025-1.1503034 2.0376137-1.5963177 3.208984-1.6445313h0.003907c1.300685-0.0533581 2.622026 0.3692744 3.572265 1.6464844l3.353516 4.5117188c0.821167-0.6932527 1.841768-1.1621094 2.976562-1.1621094h0.671875c2.547624 0 4.69336 2.133256 4.69336 4.666016v-1c0-2.5327604-2.145736-4.666016-4.69336-4.666016h-0.671875c-1.134794 0-2.155395 0.4688567-2.976562 1.1621094l-3.353516-4.5117188c-0.950239-1.27721-2.27158-1.6998425-3.572265-1.6464844h-0.003907zm15.271485 15.236328v1c0.86678 0.223731 1.690416 0.617658 2.279297 1.410157 0.347941 0.46823 0.557985 1.096441 0.628906 1.757812 0.121766-0.999363-0.107143-2.055667-0.628906-2.757812-0.588881-0.792499-1.412517-1.186426-2.279297-1.410157z" style="fill:#ffffff;opacity:.1"/>
</svg>

<svg xmlns="http://www.w3.org/2000/svg" width="32" height="32" version="1.1" viewBox="0 0 32 32">
 <path style="opacity:0.2" d="M 10.786322,3.0044217 C 9.6149513,3.0526352 8.4342994,3.4985862 7.5782744,4.6488896 l 0,0.00195 -3.9113429,5.2615191 c -3.702e-4,4.965e-4 3.699e-4,0.00146 0,0.00195 l -0.00196,0.00195 c -0.9287752,1.2498073 -0.8428305,3.3018293 -0.00197,4.4334293 0.5888866,0.7925 1.4120538,1.186371 2.2788337,1.410102 l 0,5.574004 c 0,2.532759 2.1455953,4.665836 4.6932198,4.665836 l 0.671862,0 c 1.134793,0 2.155068,-0.468812 2.976236,-1.162064 l 3.353421,4.511544 0,0.002 c 0.856949,1.151545 2.03936,1.597062 3.211976,1.644468 1.300685,0.05336 2.62321,-0.369211 3.573448,-1.646421 l 3.911343,-5.261516 0,-0.002 c 0.930294,-1.249618 0.845223,-3.303195 0.0039,-4.435377 -0.588881,-0.792499 -1.412048,-1.18637 -2.278828,-1.410101 l 0,-5.574003 c 0,-2.53276 -2.145595,-4.6658371 -4.693219,-4.6658371 l -0.671862,0 c -1.134794,0 -2.155069,0.4688119 -2.976236,1.1620646 L 14.363699,4.6508426 C 13.41346,3.3736326 12.090936,2.9510635 10.790251,3.0044217 Z"/>
 <path style="fill:#4f4f4f" d="M 10.786322,2.004422 C 9.6149513,2.0526355 8.4342994,2.4985865 7.5782744,3.6488899 l 0,0.00195 -3.9113429,5.2615191 c -3.702e-4,4.965e-4 3.699e-4,0.00146 0,0.00195 l -0.00196,0.00195 c -0.9287752,1.249807 -0.8428305,3.301829 -0.00197,4.433429 0.5888866,0.7925 1.4120538,1.186371 2.2788337,1.410102 l 0,5.574004 c 0,2.532759 2.1455953,4.665836 4.6932198,4.665836 l 0.671862,0 c 1.134793,0 2.155068,-0.468812 2.976236,-1.162064 l 3.353421,4.511544 0,0.002 c 0.856949,1.151545 2.03936,1.597062 3.211976,1.644468 1.300685,0.05336 2.62321,-0.369211 3.573448,-1.646421 l 3.911343,-5.261516 0,-0.002 c 0.930294,-1.249618 0.845223,-3.303195 0.0039,-4.435377 -0.588881,-0.792499 -1.412048,-1.18637 -2.278828,-1.410101 l 0,-5.574003 c 0,-2.53276 -2.145595,-4.6658368 -4.693219,-4.6658368 l -0.671862,0 c -1.134794,0 -2.155069,0.4688119 -2.976236,1.1620646 L 14.363699,3.6508429 C 13.41346,2.3736329 12.090936,1.9510638 10.790251,2.004422 Z"/>
 <path style="opacity:0.2" d="M 10.941406,6.0026575 A 1.1088545,0.86650889 0 0 0 10.039062,6.4342982 L 6.1484375,11.699923 a 1.1088545,0.86650889 0 0 0 0.9609375,1.300781 l 1.890625,0 0,8.333984 c 0,0.92305 0.742966,1.666016 1.666016,1.666016 l 0.667968,0 C 12.257034,23.000704 13,22.257738 13,21.334688 l 0,-8.333984 1.890625,0 a 1.1088545,0.86650889 0 0 0 0.960937,-1.300781 L 11.960938,6.4342982 A 1.1088545,0.86650889 0 0 0 10.941406,6.0026575 Z"/>
 <path style="fill:#ffd42b" d="M 10.941406,5.0019531 A 1.1088545,0.86650889 0 0 0 10.039062,5.4335938 L 6.1484375,10.699219 A 1.1088545,0.86650889 0 0 0 7.109375,12 L 9,12 9,20.333984 C 9,21.257034 9.742966,22 10.666016,22 l 0.667968,0 C 12.257034,22 13,21.257034 13,20.333984 L 13,12 l 1.890625,0 a 1.1088545,0.86650889 0 0 0 0.960937,-1.300781 L 11.960938,5.4335938 A 1.1088545,0.86650889 0 0 0 10.941406,5.0019531 Z"/>
 <path style="opacity:0.2" d="M 20.666016,11.000704 C 19.742966,11.000704 19,11.74367 19,12.66672 l 0,8.333984 -1.890625,0 a 1.1088545,0.86650889 0 0 0 -0.960937,1.300781 l 3.890624,5.265625 a 1.1088545,0.86650889 0 0 0 0.902344,0.431641 1.1088545,0.86650889 0 0 0 1.019532,-0.431641 l 3.890624,-5.265625 a 1.1088545,0.86650889 0 0 0 -0.960937,-1.300781 l -1.890625,0 0,-8.333984 c 0,-0.92305 -0.742966,-1.666016 -1.666016,-1.666016 l -0.667968,0 z"/>
 <path style="fill:#71d716" d="M 20.666016,10 C 19.742966,10 19,10.742966 19,11.666016 L 19,20 17.109375,20 a 1.1088545,0.86650889 0 0 0 -0.960937,1.300781 l 3.890624,5.265625 a 1.1088545,0.86650889 0 0 0 0.902344,0.431641 1.1088545,0.86650889 0 0 0 1.019532,-0.431641 l 3.890624,-5.265625 A 1.1088545,0.86650889 0 0 0 24.890625,20 L 23,20 23,11.666016 C 23,10.742966 22.257034,10 21.333984,10 l -0.667968,0 z"/>
 <path style="opacity:0.1;fill:#ffffff" d="M 10.787109 2.0039062 C 9.6157387 2.0521198 8.43415 2.4981341 7.578125 3.6484375 L 7.578125 3.6503906 L 3.6660156 8.9121094 C 3.6660156 8.9121094 3.6660156 8.9140625 3.6660156 8.9140625 L 3.6640625 8.9160156 C 3.1193959 9.6489466 2.9323294 10.656465 3.0332031 11.59375 C 3.1074276 10.981961 3.3112856 10.39073 3.6640625 9.9160156 L 3.6660156 9.9140625 C 3.6660156 9.9140625 3.6660156 9.9121094 3.6660156 9.9121094 L 7.578125 4.6503906 L 7.578125 4.6484375 C 8.43415 3.4981341 9.6157387 3.0521198 10.787109 3.0039062 L 10.791016 3.0039062 C 12.091701 2.9505481 13.413042 3.3731806 14.363281 4.6503906 L 17.716797 9.1621094 C 18.537964 8.4688567 19.558565 8 20.693359 8 L 21.365234 8 C 23.912858 8 26.058594 10.133256 26.058594 12.666016 L 26.058594 11.666016 C 26.058594 9.1332556 23.912858 7 21.365234 7 L 20.693359 7 C 19.558565 7 18.537964 7.4688567 17.716797 8.1621094 L 14.363281 3.6503906 C 13.413042 2.3731806 12.091701 1.9505481 10.791016 2.0039062 L 10.787109 2.0039062 z M 26.058594 17.240234 L 26.058594 18.240234 C 26.925374 18.463965 27.74901 18.857892 28.337891 19.650391 C 28.685832 20.118621 28.895876 20.746832 28.966797 21.408203 C 29.088563 20.40884 28.859654 19.352536 28.337891 18.650391 C 27.74901 17.857892 26.925374 17.463965 26.058594 17.240234 z"/>
</svg>
